X: 1919
T: Teddy Creighton's Step Dance
B: australian traditional tunes wiki
M:4/4
L:1/8
R: Step Dance
Q: 1/4=100
K:D
V:1 
|:"A"edce e2a2|"D"fdAd f2f2|"A"ecAc e2ef|"E"edcB "A"A2d2|
"G"BGDG B2B2|"D"AFDF A2A2|"A"AdcB AGFE|1"D"D2d2 d2e2:|2"D"D2d2 d2A2||
"D"AFFF "G"G2AG|"D"FDFD "G"G2AG|"D"FDFD "G"GBAG|"D"FDFD "A"E2A2|
"D"dAAF "G"GBAG|"D"FDFD "G"GBBB|"A7"Aaaa agec|"D"d2d2 d2A2||
"D"A2FF "G"GGBG|"D"FDFD "G"GBAG|"D"FDFD "G"GBAG|"D"FDFD "A"E2A2|
"D"dAAF "G"GBAG|"D"FDFD "G"GBBB|"A7"Aaaa agec|"D"d2d2 d4||
% abcbook-tune_id 6342d5be7cd50aa691a77e35


% abcbook-boost 0
% abcbook-tablature 
% abcbook-transpose 
% abcbook-lastupdated 1665324487894
% abcbook-soundfonts 
% abcbook-repeats 1
% NFF Book 2009

